X:1
T: Professor Martin's Maggot
N:
C:Prof Leonard Martin
S: Play  3  times
A:
O:
R:
M:6/8
K:G
I:speed 150
%W: A1
% voice 1 (1 lines, 29 notes)
K:G
M:6/8
L:1/16
g6 f2 e2 f2 g6 d4 c2 B4 B2 B2 A2 G2 A6 d6 |g6 f2 e2 f2 g4 d2 e4 c2 B4 B2 A4 F2 G6G4 z2 |
%W: A2
% voice 1 (1 lines, 29 notes)
g6 f2 e2 f2 g6 d4 c2 B4 B2 B2 A2 G2 A6 d6 |g6 f2 e2 f2 g4 d2 e4 c2 B4 B2 A4 F2 G6G4 z2 |
%W: B1
% voice 1 (1 lines, 33 notes)
b6 b2 a2 g2 a4 f2 d2 e2 f2 g6 ^c2 B2 c2 d4 e2 f2 g2 a2 |b6 b2 a2 g2 a4 f2 d2 e2 f2 g6 ^c2 B2 c2 d6 d6 |
%W:
% voice 1 (1 lines, 30 notes)
e6 e2 d2 c2 d4 f2 g4 d2 c4 f2 g4 c2 B4 c2 d6 |e6 e2 d2 c2 d4 f2 g4 d2 e4 c2 B4 A2 G6G4 z2 |
%W: B2
% voice 1 (1 lines, 33 notes)
b6 b2 a2 g2 a4 f2 d2 e2 f2 g6 ^c2 B2 c2 d4 e2 f2 g2 a2 |b6 b2 a2 g2 a4 f2 d2 e2 f2 g6 ^c2 B2 c2 d6 d6 |
%W:
% voice 1 (1 lines, 30 notes)
e6 e2 d2 c2 d4 f2 g4 d2 c4 f2 g4 c2 B4 c2 d6 |e6 e2 d2 c2 d4 f2 g4 d2 e4 c2 B4 A2 G6G4 z2 ||
